symbols/web/paid/materialsymbolsoutlined/paid_wght700_48px.svg

<svg xmlns="http://www.w3.org/2000/svg" height="48" width="48"><path d="M22.25 38.35h3.35v-2.4q2.95-.3 4.7-1.825t1.75-4.325q0-2.6-1.5-4.325T25.5 22.3q-2.85-1.2-4.075-2.15T20.2 17.7q0-1.3 1-2.075 1-.775 2.7-.775 1.45 0 2.575.7 1.125.7 1.875 2.2l2.95-1.35q-.95-2.1-2.3-3.1-1.35-1-3.3-1.3V9.7h-3.35V12q-2.7.45-4.1 2.05-1.4 1.6-1.4 3.85 0 2.6 1.65 4.175Q20.15 23.65 23.6 25q2.85 1.2 3.975 2.25T28.7 29.8q0 1.5-1.15 2.375t-3.2.875q-1.95 0-3.4-1.1t-2-3.1l-3.1 1.05q1 2.55 2.675 4 1.675 1.45 3.725 1.95Zm1.75 6.9q-4.4 0-8.275-1.65T8.95 39.05q-2.9-2.9-4.55-6.775Q2.75 28.4 2.75 24q0-4.45 1.65-8.325 1.65-3.875 4.55-6.75t6.775-4.55Q19.6 2.7 24 2.7q4.45 0 8.325 1.675 3.875 1.675 6.75 4.55t4.55 6.75Q45.3 19.55 45.3 24q0 4.4-1.675 8.275t-4.55 6.775q-2.875 2.9-6.75 4.55T24 45.25Zm0-4.7q6.9 0 11.725-4.825Q40.55 30.9 40.55 24q0-6.9-4.825-11.725Q30.9 7.45 24 7.45q-6.9 0-11.725 4.825Q7.45 17.1 7.45 24q0 6.9 4.825 11.725Q17.1 40.55 24 40.55ZM24 24Z"/></svg>

<svg xmlns="http://www.w3.org/2000/svg" height="48" width="48"><path d="M22.25 38.35H25.6V35.95Q28.55 35.65 30.3 34.125Q32.05 32.6 32.05 29.8Q32.05 27.2 30.55 25.475Q29.05 23.75 25.5 22.3Q22.65 21.1 21.425 20.15Q20.2 19.2 20.2 17.7Q20.2 16.4 21.2 15.625Q22.2 14.85 23.9 14.85Q25.35 14.85 26.475 15.55Q27.6 16.25 28.35 17.75L31.3 16.4Q30.35 14.3 29 13.3Q27.65 12.3 25.7 12V9.7H22.35V12Q19.65 12.45 18.25 14.05Q16.85 15.65 16.85 17.9Q16.85 20.5 18.5 22.075Q20.15 23.65 23.6 25Q26.45 26.2 27.575 27.25Q28.7 28.3 28.7 29.8Q28.7 31.3 27.55 32.175Q26.4 33.05 24.35 33.05Q22.4 33.05 20.95 31.95Q19.5 30.85 18.95 28.85L15.85 29.9Q16.85 32.45 18.525 33.9Q20.2 35.35 22.25 35.85ZM24 45.25Q19.6 45.25 15.725 43.575Q11.85 41.9 8.975 39.025Q6.1 36.15 4.425 32.275Q2.75 28.4 2.75 24Q2.75 19.6 4.425 15.725Q6.1 11.85 8.975 8.975Q11.85 6.1 15.725 4.4Q19.6 2.7 24 2.7Q28.4 2.7 32.275 4.4Q36.15 6.1 39.025 8.975Q41.9 11.85 43.6 15.725Q45.3 19.6 45.3 24Q45.3 28.4 43.6 32.275Q41.9 36.15 39.025 39.025Q36.15 41.9 32.275 43.575Q28.4 45.25 24 45.25ZM24 24Q24 24 24 24Q24 24 24 24Q24 24 24 24Q24 24 24 24Q24 24 24 24Q24 24 24 24Q24 24 24 24Q24 24 24 24ZM24 40.55Q30.85 40.55 35.7 35.7Q40.55 30.85 40.55 24Q40.55 17.15 35.675 12.3Q30.8 7.45 24 7.45Q17.2 7.45 12.325 12.275Q7.45 17.1 7.45 24Q7.45 30.9 12.3 35.725Q17.15 40.55 24 40.55Z"/></svg>
